X:2302     %Music
T:2302 Cuckoo's Nest     Morris On     %Tune name
C:Henry Stirch (80) at Shipst on Stour            %Tune composer
I:August 19th 1909          %Tune infos
V:1
Q:1/4=142     %Tempo
K:C
M:4/4     %Meter
G2 B2 B2 Ac|c2 c2 c2-B2|G2 B2 B2 AG|F2 d2 d4|G2 B2 B2 AB|c2 c2 c2-B2|A2 d2 dedc|B2 G2 G4||
g4 g3 f|e2 d2 c4|A2 a2 a3 g|e2 d2 d4|g4 g3 f|e2 c2 c4|A2 d2 d3 c|B2 G2 G4||
%End of file
